X:1009
T:Atholl Highlanders, The
R:March
C:Trad.
O:Scotland
M:6/8
L:1/8
Q:1/8=250
K:AMix
"A"e2e ecA|ecA "Bm"Bcd|"A"e2e ecA|"Bm"Bcd "A"cBA|
"A"e2e ecA|ecA "Bm"Bcd|"A"eae "D"fed|"A"cdB A2A:|
|:"A"Ace Ace|"D"Adf Adf|"A"Ace Ace|"Bm"Bcd "A"cBA|
"A"Ace Ace|"D"Adf Adf|"A"eae "D"fed|"A"cdB A2A:|
|:"A"a2e edc|"A"a2e edc|"A"a2e edc|"Bm"Bcd "A"cBA|
"A"a2e edc|a2e edc|eae "D"fed|"A"cdB A2A:|
|:"A"cAc cAc|"Bm"dBd dBd|"A"cAc cAc|"Em"BGB BGB|
"A"cAc cAc|"Bm"dBd dBd|"A"eae "D"fed|"A"cdB A3:|

